X:1
T:James Gibb editions
T:Hari bouriquet - Sermisy
T:#
%%score [ 1 2 3 4 ]
L:1/8
Q:1/4=130
M:2/2
K:F
V:1 treble nm="Soprano" snm="S"
V:2 treble nm="Alto" snm="A"
V:3 treble-8 nm="Tenor" snm="T"
V:4 bass nm="Bass" snm="B"
V:1
"^Hari bouriquet""^Claudin de Sermisy\n(1490-1562)" F2 F2 F2 F2 | (GA) (BG) A2 A2 | z8 | z8 | %4
w: Les da- mes se|sont * tail\- * la- des,|||
 A2 A2 A4 | z4 A4 |[M:2/2] z4 A4 | G2 F2 B3 A | G2 F2 F2 E2 | F2 GA B2 G2 | A4 GFFE | F2 GA B2 AG | %12
w: Par com- pra,|ha,|ha,|L'ey- ze Sa- ba-|ton de Cor- dou-|en lo sca- fi- gno-|let, ha- ri bou- ri-|quet, bou- ri- quet, bou- ri-|
 A3 A GFFE | F2 GA B2 AG | A3 A GFFE | F8 |] %16
w: quet, et ha- ri bou- ri-|quet, bou- ri- quet, bou- ri-|quet, et ha- ri bou- ri-|quet.|
V:2
 F2 F2 D2 D2 | E2 E2 F2 F2 | z8 | z8 | F2 F2 F4 | z4 F4 |[M:2/2] z4 F4 | E2 C2 F3 E | D2 D2 C2 C2 | %9
w: Les da- mes se|sont tail- la- des,|||Par com- pra,|ha,|ha,|L'ey- ze Sa- ba-|ton de Cor- dou-|
 A,2 EE F2 E2 | C4 DB,CC | A,2 EE F2 FD | F3 F DB,CC | A,2 EE F2 FD | F3 F DB,CC | A,8 |] %16
w: en lo sca- fi- gno-|let, ha- ri bou- ri-|quet, bou- ri- quet, bou- ri-|quet, et ha- ri bou- ri-|quet, bou- ri- quet, bou- ri-|quet, et ha- ri bou- ri-|quet.|
V:3
 z8 | z8 | F2 F2 F2 F2 | (GA) (BG) A4 | z4 A2 A2 | A4 z4 |[M:2/2][K:treble-8] A4 A4 | c2 A2 d3 c | %8
w: ||Cha- cu- ne d'un|Tou\- * lou\- * zan,|Par com-|pra,|ha, ha,|L'ey- ze Sa- ba-|
 B2 A2 A2 G2 | F2 cc d2 c2 | A4 BFGG | F2 cc d2 cB | c3 A BFGG | F2 cc d2 cB | c3 A BFGG | F8 |] %16
w: ton de Cor- dou-|en lo sca- fi- gno-|let, ha- ri bou- ri-|quet, bou- ri- quet, bou- ri-|quet, et ha- ri bou- ri-|quet, bou- n- quet, bou- ri-|quet, et ha- ri bou- ri-|quet.|
V:4
 z8 | z8 | F,2 F,2 D,2 D,2 | E,2 E,2 F,4 | z4 F,2 F,2 | F,4 z4 |[M:2/2] F,4 F,4 | C,2 F,2 B,,3 C, | %8
w: ||Cha- cu- ne d'un|Tou- lou- zan,|Par com-|pra,|ha, ha,|L'ey- ze Sa- ba-|
 B,,2 A,,2 C,2 C,2 | D,2 C,C, B,,2 C,2 | F,4 B,,D,C,C, | F,2 C,C, B,,2 F,G, | F,3 F, B,,D,C,C, | %13
w: ton de Cor- dou-|en lo sca- fi- gno-|let, ha- ri bou- ri-|quet, bou- ri- quet, bou- ri-|quet, et ha- ri bou- ri-|
 F,2 C,C, B,,2 F,G, | F,3 F, B,,D,C,C, | F,,8 |] %16
w: quet, bou- ri- quet, bou- ri-|quet, et ha- ri bou- ri-|quet.|

